!!!OTL: 2174. Von des Himmels Freuden.
!!!ODT: 1430
!!!ARE: Europa, Mitteleuropa, Deutschland
!!!SCT: E2174
!!!TXL: @@DE
!!!YEM: Copyright 1995, estate of Helmut Schaffrath.
**kern	**text
*ICvox	*
*M3/2	*
*k[b-]	*
*F:	*
!LO:TX:a:t=Mel. 1430.	!
{2c	Jch
=1	=1
4d	weiß
4e	ein
2f	ſchö-
2g	-nes
=2	=2
4d	En-
4e	-gel-
2f}	-ſpiel,
{2f	da
=3	=3
4a	iſt
4b-	alls
2cc	Leid
2b-	ver-
=4	=4
2cc	-gan-
2g}	-gen
{2g	im
=5	=5
4a	Himmel-
4b-/	.
2cc	-reich
2a	iſt
=6	=6
4b-	Freu-
4a	-de
2b-	viel,
2g	ohn
=7	=7
4a	En-
4g	-des
2a}	Ʒiel
{2g	da-
=8	=8
4f	-hin
4f	ſoll
2a	uns
2g	ver-
=9	=9
(4d	-lan-
4e)	.
2f;}	-gen.
==	==
!!!AGN: geistlich, Moral - Lied, Auferstehung
!!!ONB: ESAC (Essen Associative Code) Database: ERK3
!!!AMT: simple triple
!!!AIN: vox
!!!EED: Helmut Schaffrath
!!!EEV: 1.0
!!!GTL: 6. Lieder von den Letzten Dinen: Tod, Begraebniss, Auferstehung, Weltgericht, ewige Seligkeit.
!!!URL-scan: https://rosdok.uni-rostock.de/mcrviewer/recordIdentifier/rosdok_ppn745177999/iview2/phys_0872.iview2?x=188.9681574111819&y=1604.3152919076383&scale=0.7014306698522895&rotation=0&layout=singlePageLayout
!!!ENC: Anna Maria Matuszewska
!!!EEV: 2025/14/01
*-	*-
